X:1
T:Missa Surge Propera (5: Domine deus, agnus dei)
T:Lupus Hellinck
T:Leiden Choirbooks - Codex F - folio 10
%%score 1 2 3
L:1/8
Q:1/4=96
M:none
K:C
V:1 treble nm="Superius" snm="S."
V:2 treble nm="Contra" snm="C."
V:3 treble-8 nm="Tenor" snm="T."
V:1
"^Andante" z8 | z8 | z8 | z8 | z8 | d6 d2 | c4 f4- | f2 ed e2 c2- | c2 A2 c2 d2 | B2 e4 e2 | %10
w: |||||Do _|mi- ne|_ de- us _ _|_ _ _ _||
 e4 d4 | c4 z2 f2 | e2 c2 d2 e2 | A3 B c2 A2- | A2 G2 E2 A2- | A2 G2 c3 d | e2 f4 e2 | c2 d2 e4- | %18
w: |* Do-|mi- ne _ de-|us _ _ _|_ _ _ _||||
 e8 | z4 d4 | c2 f4 ed | c2 d2 A2 d2 | e2 f2 g4 | f4 z2 f2- | f2 d2 f2 e2- | edcB A2 d2- | %26
w: |ag-|nus _ _ _|_ dei _ _|_ _ _|* fi-|li- us _ _|_ _ _ _ _ _|
 dc A2 B2 c2- | cBAG FE A2- | A2 G2 A2 c2- | c2 A2 c2 B2- | B2 A4 G2 | A4 z2 f2 | f2 d2 f4 | e8- | %34
w: * * pa _ tris,|_ _ _ _ _ _ _||||* fi-|li- us pa-|tris.|
 e8 |] %35
w: |
V:2
 D6 D2 | C4 F4- | F2 ED E2 C2- | C2 A,2 C2 D2 | G,2 C3 B, A,2 | G,2 A,2 B,4 | A,4 D4- | D2 D2 C4 | %8
w: Do- mi-|ne _|_ _ _ de- us,||||* do-|* mi- ne|
 F6 ED | E3 D CB, A,2- | A,2 A4 G2 | A2 F4 ED | C2 A,2 B,2 C2 | D4 A,2 F2- | F2 E2 C2 D2 | E4 A,4 | %16
w: _ de- us|_ _ _ _ _|||||||
 z2 D4 C2 | F4 E4 | z2 A,B, CDEF | G2 A4 G2 | A2 D4 C2 | F6 F2 | E2 D2 E4 | D4 D3 C | _B,4 A,4 | %25
w: ag- nus|dei, _||||* ag-|nus dei _|_ _ _||
 z2 F4 D2 | F4 E4 | C2 D3 C A,2 | _B,4 A,4 | z2 F4 E2 | F4 E4 | A,2 D4 D2 | D4 D4 | A,8- | A,8 |] %35
w: |fi- li-|us _ _ pa-|tris, _|fi- li-|us pa-|tris, fi- li-|us pa-|tris.||
V:3
 z8 | z4 A4- | A2 A2 G4 | c6 BA | B2 G4 c2 | B2 A4 G2 | A8- | A4 z4 | A6 A2 | G4 c4- | c2 BA B4 | %11
w: |Do-|* * mi-|ne de- us|_ _ _||||Do- mi-|ne _|_ de- us _|
 z2 A4 A2 | A4 G4 | F2 f2 e2 c2 | d2 e4 dc | B4 A4- | A8 | z2 A4 G2 | c6 c2 | B2 A2 B4 | A8 | %21
w: do- mi-|ne de-|us _ _ _|_ _ _ _|||ag- nus|_ _|* dei _|_|
 z2 DE FGAB | c2 d4 c2 | d2 DE FG A2- | A2 G2 A2 c2- | c2 A2 c2 B2- | B2 A4 G2 | A4 z2 f2- | %28
w: * * * ag- nus _|_ dei _|_ _ _ _ _ _||* fi- li- us|_ pa- tris|_ fi-|
 f2 e2 f2 e2- | edcB A2 d2- | dc A2 B4 | A2 F4 D2 | F3 G A2 B2 | c8- | c8 |] %35
w: * li- us _|_ _ _ _ _ _|||* * pa _|tris.||

